X: 28899
T: N'Alcordanza
R: barndance
M: 4/4
K: Gmajor
Bc|:d3 e dcBG|E2 c4 (3ABc|d2 G4 B2|1 A6 Bc:|2 A2A3 B GF||
|:E2 c4 (3ABc|de dB G2 FG|A2 D4 B2|1 A2A3 B GF:|2 A4 BA GA||
|:B3 c de dB|BA AB DE GA|B3 c de dB|A4 DE GA|
B3 c de dB|BA Ae ed dB|BA AB DE GA|1 G4 DE GA:|2 G8||

